svg/color/spgion.svg

<svg width="40" height="40" viewBox="0 0 40 40" fill="none" xmlns="http://www.w3.org/2000/svg">
<g clip-path="url(#clip0_820_3834)">
<path d="M20 0C31.0457 0 40 8.9543 40 20C40 31.0457 31.0457 40 20 40C8.95431 40 7.90517e-06 31.0457 0 20C6.58765e-07 8.95431 8.95431 1.97595e-06 20 0Z" fill="#F7CCD4"/>
<path d="M26 6C30.4183 6 34 9.58172 34 14V26C34 30.4183 30.4183 34 26 34H14C9.58172 34 6 30.4183 6 26V14C6 9.58172 9.58172 6 14 6H26Z" fill="#D6002A"/>
<path d="M19.3109 17.7538C19.5844 17.7538 19.8453 17.7939 20.0943 17.8747C20.3433 17.9551 20.5627 18.0745 20.7523 18.2323C20.9414 18.3901 21.092 18.5831 21.2042 18.8106C21.3164 19.0385 21.3725 19.2998 21.3725 19.5943C21.3725 19.8398 21.3375 20.0586 21.267 20.2516C21.1973 20.4443 21.0986 20.6197 20.9726 20.7776C20.8466 20.935 20.6972 21.0808 20.5256 21.2141C20.3536 21.3477 20.1663 21.4732 19.963 21.5923L21.2565 23.0022C21.3197 22.8831 21.3633 22.7444 21.3878 22.5866C21.4124 22.4288 21.4317 22.2623 21.4458 22.0868C21.46 21.9187 21.4672 21.7539 21.4672 21.5923V21.173H23.3918V22.214H22.5296C22.515 22.5086 22.4768 22.7995 22.414 23.0868C22.3508 23.3748 22.2385 23.6407 22.0773 23.8866L23.4547 25.3799H21.8562L21.3306 24.7907C21.0288 25.0573 20.6975 25.2535 20.3367 25.3799C19.9754 25.5059 19.6017 25.5688 19.2159 25.5688C18.8865 25.5688 18.5709 25.5163 18.2695 25.4109C17.9681 25.3064 17.7054 25.157 17.4809 24.9639C17.2568 24.7712 17.0778 24.5347 16.9445 24.2543C16.8112 23.9739 16.7447 23.6579 16.7447 23.3075C16.7447 22.8447 16.8655 22.4488 17.1076 22.1186C17.3493 21.7892 17.6706 21.5019 18.0701 21.2564C17.9506 21.13 17.842 21.006 17.7439 20.8827C17.6455 20.7605 17.5615 20.6354 17.4914 20.509C17.421 20.383 17.367 20.2496 17.3283 20.1094C17.29 19.9693 17.2703 19.8116 17.2703 19.6366C17.2703 19.342 17.325 19.0786 17.4338 18.8473C17.5422 18.616 17.6877 18.4179 17.87 18.2532C18.0523 18.0885 18.2681 17.9642 18.5171 17.8799C18.7657 17.796 19.0302 17.7538 19.3109 17.7538ZM13.0293 17.7755C13.4288 17.7755 13.8127 17.837 14.1808 17.9596C14.5489 18.0825 14.8594 18.263 15.1115 18.5013C15.3359 18.7115 15.5164 18.95 15.6531 19.2161C15.7899 19.4827 15.8617 19.7736 15.869 20.0892H14.4808C14.4735 19.9563 14.4399 19.8244 14.3805 19.695C14.3208 19.5652 14.2453 19.4514 14.1546 19.353C14.0351 19.227 13.8671 19.1287 13.6499 19.0583C13.4324 18.9885 13.2219 18.9535 13.0185 18.9535C12.8082 18.9535 12.5926 18.9814 12.3721 19.0373C12.151 19.0936 11.9631 19.2026 11.8091 19.3639C11.7318 19.4477 11.6706 19.539 11.625 19.6373C11.5795 19.7354 11.5569 19.8544 11.5569 19.9946C11.5569 20.2401 11.627 20.4274 11.7672 20.5572C11.9074 20.6871 12.0896 20.7696 12.3141 20.8045C12.5523 20.8401 12.8204 20.8716 13.1184 20.8991C13.4163 20.9275 13.688 20.9589 13.9335 20.9938C14.2139 21.0359 14.4787 21.1117 14.7277 21.2201C14.9767 21.3289 15.1939 21.4725 15.3801 21.651C15.5654 21.8303 15.7131 22.0454 15.8219 22.2978C15.9299 22.5503 15.9846 22.8343 15.9846 23.15C15.9846 23.5008 15.9266 23.8018 15.811 24.0541C15.6953 24.3066 15.5463 24.5242 15.364 24.7066C15.0767 24.9938 14.7279 25.1993 14.3177 25.3215C13.9074 25.4441 13.4707 25.5052 13.008 25.5052C12.6081 25.5052 12.2139 25.4477 11.8248 25.332C11.4356 25.2163 11.0868 25.018 10.7785 24.7376C10.554 24.5342 10.3682 24.2833 10.2211 23.9857C10.0736 23.6881 10 23.3603 10 23.003H11.3886C11.3886 23.1856 11.425 23.3555 11.499 23.5129C11.5725 23.6706 11.6651 23.8058 11.7776 23.9176C11.9385 24.0796 12.1333 24.1857 12.3612 24.2389C12.5891 24.2914 12.8118 24.3175 13.0293 24.3175C13.2886 24.3175 13.5342 24.2878 13.7655 24.2281C13.9969 24.1687 14.1827 24.0655 14.3229 23.9176C14.4072 23.8272 14.4768 23.7307 14.5331 23.6284C14.5895 23.5269 14.6169 23.3851 14.6169 23.2027C14.6169 22.9296 14.528 22.7245 14.3491 22.5877C14.1702 22.4514 13.9654 22.3617 13.7337 22.3195C13.4813 22.2705 13.2043 22.2351 12.9029 22.2144C12.6014 22.1937 12.3277 22.1612 12.0825 22.119C11.8229 22.0769 11.5794 22.0032 11.3519 21.8983C11.124 21.793 10.9239 21.6547 10.7519 21.4827C10.5804 21.3111 10.4434 21.1045 10.3419 20.8625C10.24 20.6208 10.1893 20.3456 10.1893 20.0369C10.1893 19.7423 10.249 19.4725 10.3681 19.227C10.4872 18.9815 10.6452 18.761 10.8417 18.5645C11.0868 18.3189 11.4024 18.126 11.7881 17.9858C12.1739 17.8456 12.5877 17.7755 13.0293 17.7755ZM27.3706 17.9124C27.798 17.9124 28.1769 17.9704 28.5063 18.086C28.8361 18.2017 29.1112 18.3629 29.3319 18.5697C29.5529 18.7766 29.7194 19.0271 29.8317 19.3216C29.9439 19.6162 30 19.9421 30 20.2995C30 20.6573 29.9439 20.9831 29.8317 21.2781C29.7194 21.5726 29.5529 21.825 29.3319 22.0352C29.1112 22.2455 28.8361 22.4092 28.5063 22.5245C28.1769 22.6402 27.798 22.6981 27.3706 22.6981H25.7931V25.3694H24.4467V17.9124H27.3706ZM18.8377 22.0771C18.7117 22.1545 18.5959 22.2281 18.4906 22.2978C18.3856 22.3679 18.2919 22.4494 18.2115 22.5402C18.1311 22.6313 18.0682 22.7344 18.0226 22.8503C17.977 22.9664 17.9542 23.1008 17.9541 23.2555C17.9541 23.4447 17.991 23.613 18.0645 23.7605C18.1384 23.9076 18.2367 24.0301 18.3593 24.1286C18.4818 24.2266 18.6234 24.2999 18.785 24.3493C18.9462 24.3983 19.1145 24.4226 19.29 24.4226C19.514 24.4226 19.7385 24.3912 19.963 24.328C20.1874 24.2648 20.3801 24.1425 20.5413 23.9599L18.8377 22.0771ZM25.7934 21.5093H27.3186C27.774 21.5093 28.1074 21.3988 28.3177 21.1778C28.5276 20.9572 28.6331 20.668 28.6331 20.3103C28.6331 19.9526 28.528 19.6617 28.3177 19.4372C28.1074 19.2131 27.774 19.1009 27.3186 19.1009H25.7934V21.5093ZM19.3109 18.8379C19.0938 18.838 18.9007 18.9026 18.7326 19.0325C18.5645 19.1623 18.4801 19.3568 18.4801 19.616C18.4801 19.7351 18.503 19.8474 18.5486 19.9523C18.5941 20.0576 18.6499 20.1577 18.7169 20.2523C18.7831 20.3469 18.8586 20.4359 18.9428 20.5206C19.0267 20.6044 19.1075 20.6853 19.1849 20.7622C19.2967 20.6994 19.4107 20.6343 19.5268 20.5677C19.642 20.5014 19.7454 20.426 19.8365 20.3414C19.9277 20.2571 20.0013 20.1588 20.0576 20.0466C20.1139 19.9351 20.1418 19.8018 20.1418 19.6474C20.1417 19.3883 20.0631 19.1883 19.9054 19.0482C19.7479 18.908 19.5492 18.8379 19.3109 18.8379ZM29.9192 14.1667V15.3159H10V14.1667H29.9192Z" fill="white"/>
</g>
<defs>
<clipPath id="clip0_820_3834">
<rect width="40" height="40" fill="white"/>
</clipPath>
</defs>
</svg>

<svg xmlns="http://www.w3.org/2000/svg" width="40" height="40" fill="none" viewBox="0 0 40 40"><g clip-path="url(#spgion_svg-a)"><path fill="#F7CCD4" d="M20 0c11.046 0 20 8.954 20 20s-8.954 20-20 20S0 31.046 0 20 8.954 0 20 0"/><path fill="#D6002A" d="M26 6a8 8 0 0 1 8 8v12a8 8 0 0 1-8 8H14a8 8 0 0 1-8-8V14a8 8 0 0 1 8-8z"/><path fill="#fff" d="M19.31 17.754q.41 0 .784.12.375.121.658.358t.452.579.168.783q0 .369-.105.658-.105.288-.294.526a2.7 2.7 0 0 1-.447.436q-.258.201-.563.378l1.293 1.41a1.3 1.3 0 0 0 .132-.415 7 7 0 0 0 .08-.995v-.419h1.924v1.041h-.862a5.3 5.3 0 0 1-.116.873 2.4 2.4 0 0 1-.337.8l1.378 1.493h-1.599l-.525-.59a3 3 0 0 1-.994.59 3.4 3.4 0 0 1-1.121.189q-.494 0-.947-.158a2.4 2.4 0 0 1-.788-.447 2.13 2.13 0 0 1-.736-1.656q0-.695.363-1.19.362-.493.962-.862a6 6 0 0 1-.326-.373 2.6 2.6 0 0 1-.253-.374 1.8 1.8 0 0 1-.163-.4 1.8 1.8 0 0 1-.058-.472q0-.442.164-.79.163-.347.436-.594t.647-.373.794-.126m-6.28.021q.599 0 1.15.185.554.184.931.541.337.316.542.715.205.4.216.873h-1.388a1.1 1.1 0 0 0-.1-.394 1.3 1.3 0 0 0-.226-.342 1.2 1.2 0 0 0-.505-.295 2 2 0 0 0-.632-.105q-.315 0-.646.084a1.16 1.16 0 0 0-.563.327 1 1 0 0 0-.184.273.85.85 0 0 0-.068.358q0 .367.21.562t.547.248q.357.053.804.094.447.042.816.095.42.063.794.226.373.164.652.431.278.269.442.647t.163.852q0 .526-.174.904-.174.379-.447.653a2.44 2.44 0 0 1-1.046.614q-.615.184-1.31.184-.6 0-1.183-.173a2.7 2.7 0 0 1-1.046-.594 2.5 2.5 0 0 1-.558-.752 2.2 2.2 0 0 1-.221-.983h1.389q0 .274.11.51.11.237.279.405.24.242.583.32a3 3 0 0 0 1.404-.01q.348-.09.558-.31.126-.135.21-.29.084-.152.084-.425 0-.41-.268-.615a1.4 1.4 0 0 0-.615-.268 7 7 0 0 0-.831-.106 8 8 0 0 1-.82-.095 2.8 2.8 0 0 1-.731-.22 2.1 2.1 0 0 1-.6-.416 1.9 1.9 0 0 1-.41-.62 2.1 2.1 0 0 1-.153-.826q0-.442.18-.81.177-.368.473-.663.367-.368.946-.578.58-.21 1.241-.21m14.34.137q.642 0 1.136.174.495.174.826.484t.5.752q.168.441.168.977 0 .537-.168.98a2 2 0 0 1-.5.756q-.33.316-.826.49-.495.173-1.135.173h-1.578v2.671h-1.346v-7.457zm-8.532 4.165q-.19.116-.347.22a1.4 1.4 0 0 0-.28.243 1 1 0 0 0-.188.31q-.069.173-.069.406 0 .283.11.505.111.22.295.368.184.146.426.22t.505.074q.336 0 .673-.095.336-.095.578-.368zm6.955-.568h1.526q.682 0 .999-.331.315-.33.315-.868 0-.535-.315-.873-.316-.336-1-.336h-1.525zm-6.482-2.671a.92.92 0 0 0-.578.194q-.253.195-.253.584 0 .18.069.336.067.159.168.3.1.142.226.269l.242.241.342-.194q.172-.1.31-.227.136-.126.22-.294a.9.9 0 0 0 .085-.4q0-.389-.237-.599a.86.86 0 0 0-.594-.21m10.608-4.671v1.149H10v-1.15z"/></g><defs><clipPath id="spgion_svg-a"><path fill="#fff" d="M0 0h40v40H0z"/></clipPath></defs></svg>
